static/logos/clearbit-glyph-color.svg

<svg width="54" height="55" viewBox="0 0 54 55" fill="none" xmlns="http://www.w3.org/2000/svg">
<g filter="url(#filter0_f_1_3263)">
<path d="M38.3046 51.3686H15.8646L14.9486 51.3613C11.1595 51.2997 9.65237 50.838 8.1338 50.0226C6.49844 49.1444 5.21499 47.8557 4.34037 46.2135L4.15923 45.8608C3.43074 44.3831 3.03142 42.7523 3.00178 38.9212L3 15.9179C3 11.426 3.46576 9.79718 4.34037 8.15505C5.21499 6.51292 6.49844 5.22415 8.1338 4.34592L8.48508 4.16404C9.95659 3.43252 11.5807 3.03155 15.3962 3.00178L38.3046 3C42.7779 3 44.4 3.4677 46.0353 4.34592C47.6708 5.22415 48.9542 6.51292 49.8288 8.15505L50.0099 8.50778C50.7384 9.98538 51.1378 11.6162 51.1674 15.4474L51.1692 38.4507L51.1621 39.3704C51.1006 43.1752 50.6409 44.6887 49.8288 46.2135C48.9542 47.8557 47.6708 49.1444 46.0353 50.0226L45.6841 50.2046C44.1538 50.9653 42.4583 51.3686 38.3046 51.3686Z" fill="#C4D3E0" fill-opacity="0.2"/>
</g>
<path d="M51.1705 27.1843V38.4508C51.1705 42.9426 50.7047 44.5714 49.8301 46.2135C48.9556 47.8558 47.6721 49.1445 46.0367 50.0227C44.4013 50.9009 42.7792 51.3685 38.306 51.3685H27.0859V27.1843H51.1705Z" fill="url(#paint0_linear_1_3263)"/>
<path d="M27.0859 3H38.306C42.7792 3 44.4013 3.4677 46.0367 4.34592C47.6721 5.22415 48.9556 6.5129 49.8301 8.15505C50.7047 9.79718 51.1705 11.426 51.1705 15.9178V27.1842H27.0859V3Z" fill="url(#paint1_linear_1_3263)"/>
<path d="M15.8646 3H27.0846V51.3686H15.8646C11.3913 51.3686 9.76918 50.9008 8.1338 50.0226C6.49844 49.1444 5.21499 47.8557 4.34037 46.2135C3.46576 44.5713 3 42.9425 3 38.4507V15.9179C3 11.426 3.46576 9.79718 4.34037 8.15505C5.21499 6.51292 6.49844 5.22415 8.1338 4.34592C9.76918 3.4677 11.3913 3 15.8646 3Z" fill="url(#paint2_linear_1_3263)"/>
<defs>
<filter id="filter0_f_1_3263" x="0.28576" y="0.28576" width="53.6004" height="53.797" filterUnits="userSpaceOnUse" color-interpolation-filters="sRGB">
<feFlood flood-opacity="0" result="BackgroundImageFix"/>
<feBlend mode="normal" in="SourceGraphic" in2="BackgroundImageFix" result="shape"/>
<feGaussianBlur stdDeviation="1.35712" result="effect1_foregroundBlur_1_3263"/>
</filter>
<linearGradient id="paint0_linear_1_3263" x1="39.1282" y1="27.1843" x2="51.2502" y2="51.3285" gradientUnits="userSpaceOnUse">
<stop stop-color="#DEF2FE"/>
<stop offset="1" stop-color="#DBF1FE"/>
</linearGradient>
<linearGradient id="paint1_linear_1_3263" x1="27.0859" y1="3" x2="39.2081" y2="27.1442" gradientUnits="userSpaceOnUse">
<stop stop-color="#57BCFD"/>
<stop offset="1" stop-color="#51B5FD"/>
</linearGradient>
<linearGradient id="paint2_linear_1_3263" x1="12.0317" y1="3" x2="32.6392" y2="44.0451" gradientUnits="userSpaceOnUse">
<stop stop-color="#1CA7FD"/>
<stop offset="1" stop-color="#148CFC"/>
</linearGradient>
</defs>
</svg>

<svg xmlns="http://www.w3.org/2000/svg" width="62.836" height="64" fill="none" viewBox="0 0 54 55"><g filter="url(#a)"><path fill="#C4D3E0" fill-opacity=".2" d="M38.305 51.369h-22.44l-.916-.008c-3.79-.061-5.297-.523-6.815-1.338a9.137 9.137 0 0 1-3.794-3.81l-.18-.352c-.73-1.478-1.129-3.109-1.158-6.94L3 15.918c0-4.492.466-6.12 1.34-7.763a9.138 9.138 0 0 1 3.794-3.81l.351-.181c1.472-.731 3.096-1.132 6.911-1.162L38.305 3c4.473 0 6.095.468 7.73 1.346a9.137 9.137 0 0 1 3.794 3.809l.18.353c.73 1.477 1.129 3.108 1.158 6.94l.002 23.003-.007.92c-.061 3.804-.521 5.318-1.333 6.843a9.136 9.136 0 0 1-3.794 3.809l-.35.182c-1.531.76-3.227 1.164-7.38 1.164Z"/></g><path fill="url(#b)" d="M51.17 27.184v11.267c0 4.492-.465 6.12-1.34 7.763a9.136 9.136 0 0 1-3.793 3.809c-1.636.878-3.258 1.345-7.731 1.345h-11.22V27.184H51.17Z"/><path fill="url(#c)" d="M27.086 3h11.22c4.473 0 6.095.468 7.73 1.346a9.137 9.137 0 0 1 3.794 3.809c.875 1.642 1.34 3.271 1.34 7.763v11.266H27.086V3Z"/><path fill="url(#d)" d="M15.865 3h11.22v48.369h-11.22c-4.474 0-6.096-.468-7.731-1.346a9.137 9.137 0 0 1-3.794-3.81C3.466 44.572 3 42.944 3 38.452V15.918c0-4.492.466-6.12 1.34-7.763a9.138 9.138 0 0 1 3.794-3.81C9.769 3.469 11.39 3 15.864 3Z"/><defs><linearGradient id="b" x1="39.128" x2="51.25" y1="27.184" y2="51.328" gradientUnits="userSpaceOnUse"><stop stop-color="#DEF2FE"/><stop offset="1" stop-color="#DBF1FE"/></linearGradient><linearGradient id="c" x1="27.086" x2="39.208" y1="3" y2="27.144" gradientUnits="userSpaceOnUse"><stop stop-color="#57BCFD"/><stop offset="1" stop-color="#51B5FD"/></linearGradient><linearGradient id="d" x1="12.032" x2="32.639" y1="3" y2="44.045" gradientUnits="userSpaceOnUse"><stop stop-color="#1CA7FD"/><stop offset="1" stop-color="#148CFC"/></linearGradient><filter id="a" width="53.6" height="53.797" x=".286" y=".286" color-interpolation-filters="sRGB" filterUnits="userSpaceOnUse"><feFlood flood-opacity="0" result="BackgroundImageFix"/><feBlend in="SourceGraphic" in2="BackgroundImageFix" result="shape"/><feGaussianBlur result="effect1_foregroundBlur_1_3263" stdDeviation="1.357"/></filter></defs></svg>
